X:83
T:THRSPSK2- Three sheep skins
S:Dancing Master from 1698
Q:1/4=120
L:1/4
M:C
K:Dmixolydian
G2B3/2 c/|d2B2|c2A2|d2A2::BGGB|AGGB|AGFE|F2D2::\
d3/2 e/ fg|a2f2|g3/2 a/ g/f/g/e/|a2e2::\
fddf|e/r/e/d/ c/d/e/f/|d/e/d/c/ B/c/d/e/|c2A2:|]

